(G-CODE GENERATED BY FLATCAM v8.994 - www.flatcam.org - Version Date: 2020/11/7)

(Name: sortie_GPIO-B_Cu.gbr_cutout_cnc)
(Type: G-code from Geometry)
(Units: MM)

(Created on jeudi, 12 mai 2022 at 16:16)


G01 F200.00

M5
G00 Z15.0000
G00 X0.0000 Y0.0000
T1
M6    
(MSG, Change to Tool Dia = 2.0000)
M0
G00 Z15.0000

M03
G01 F200.00
G00 X-2.5003 Y33.9875
G01 F120.00
G01 Z-0.6000
G01 F200.00
G01 X-2.5003 Y-0.0003
G01 X-2.4858 Y-0.2943
G01 X-2.4426 Y-0.5855
G01 X-2.3711 Y-0.8711
G01 X-2.2719 Y-1.1483
G01 X-2.1460 Y-1.4144
G01 X-1.9947 Y-1.6670
G01 X-1.8193 Y-1.9034
G01 X-1.6216 Y-2.1216
G01 X-1.4034 Y-2.3193
G01 X-1.1670 Y-2.4947
G01 X-0.9144 Y-2.6460
G01 X-0.6483 Y-2.7719
G01 X-0.3711 Y-2.8711
G01 X-0.0855 Y-2.9426
G01 X0.2057 Y-2.9858
G01 X0.4997 Y-3.0003
G01 X96.2899 Y-3.0003
G00 X96.2899 Y-3.0003
G01 F120.00
G01 Z-1.2000
G01 F200.00
G01 X0.4997 Y-3.0003
G01 X0.2057 Y-2.9858
G01 X-0.0855 Y-2.9426
G01 X-0.3711 Y-2.8711
G01 X-0.6483 Y-2.7719
G01 X-0.9144 Y-2.6460
G01 X-1.1670 Y-2.4947
G01 X-1.4034 Y-2.3193
G01 X-1.6216 Y-2.1216
G01 X-1.8193 Y-1.9034
G01 X-1.9947 Y-1.6670
G01 X-2.1460 Y-1.4144
G01 X-2.2719 Y-1.1483
G01 X-2.3711 Y-0.8711
G01 X-2.4426 Y-0.5855
G01 X-2.4858 Y-0.2943
G01 X-2.5003 Y-0.0003
G01 X-2.5003 Y33.9875
G00 X-2.5003 Y33.9875
G01 F120.00
G01 Z-1.8000
G01 F200.00
G01 X-2.5003 Y-0.0003
G01 X-2.4858 Y-0.2943
G01 X-2.4426 Y-0.5855
G01 X-2.3711 Y-0.8711
G01 X-2.2719 Y-1.1483
G01 X-2.1460 Y-1.4144
G01 X-1.9947 Y-1.6670
G01 X-1.8193 Y-1.9034
G01 X-1.6216 Y-2.1216
G01 X-1.4034 Y-2.3193
G01 X-1.1670 Y-2.4947
G01 X-0.9144 Y-2.6460
G01 X-0.6483 Y-2.7719
G01 X-0.3711 Y-2.8711
G01 X-0.0855 Y-2.9426
G01 X0.2057 Y-2.9858
G01 X0.4997 Y-3.0003
G01 X96.2899 Y-3.0003
G00 Z2.0000
G00 X-2.5003 Y39.9875
G01 F120.00
G01 Z-0.6000
G01 F200.00
G01 X-2.5003 Y69.9752
G01 X-2.4858 Y70.2693
G01 X-2.4426 Y70.5605
G01 X-2.3711 Y70.8461
G01 X-2.2719 Y71.1233
G01 X-2.1460 Y71.3894
G01 X-1.9947 Y71.6420
G01 X-1.8193 Y71.8784
G01 X-1.6216 Y72.0966
G01 X-1.4034 Y72.2943
G01 X-1.1670 Y72.4696
G01 X-0.9144 Y72.6210
G01 X-0.6483 Y72.7469
G01 X-0.3711 Y72.8461
G01 X-0.0855 Y72.9176
G01 X0.2057 Y72.9608
G01 X0.4997 Y72.9752
G01 X96.2899 Y72.9752
G00 X96.2899 Y72.9752
G01 F120.00
G01 Z-1.2000
G01 F200.00
G01 X0.4997 Y72.9752
G01 X0.2057 Y72.9608
G01 X-0.0855 Y72.9176
G01 X-0.3711 Y72.8461
G01 X-0.6483 Y72.7469
G01 X-0.9144 Y72.6210
G01 X-1.1670 Y72.4696
G01 X-1.4034 Y72.2943
G01 X-1.6216 Y72.0966
G01 X-1.8193 Y71.8784
G01 X-1.9947 Y71.6420
G01 X-2.1460 Y71.3894
G01 X-2.2719 Y71.1233
G01 X-2.3711 Y70.8461
G01 X-2.4426 Y70.5605
G01 X-2.4858 Y70.2693
G01 X-2.5003 Y69.9752
G01 X-2.5003 Y39.9875
G00 X-2.5003 Y39.9875
G01 F120.00
G01 Z-1.8000
G01 F200.00
G01 X-2.5003 Y69.9752
G01 X-2.4858 Y70.2693
G01 X-2.4426 Y70.5605
G01 X-2.3711 Y70.8461
G01 X-2.2719 Y71.1233
G01 X-2.1460 Y71.3894
G01 X-1.9947 Y71.6420
G01 X-1.8193 Y71.8784
G01 X-1.6216 Y72.0966
G01 X-1.4034 Y72.2943
G01 X-1.1670 Y72.4696
G01 X-0.9144 Y72.6210
G01 X-0.6483 Y72.7469
G01 X-0.3711 Y72.8461
G01 X-0.0855 Y72.9176
G01 X0.2057 Y72.9608
G01 X0.4997 Y72.9752
G01 X96.2899 Y72.9752
G00 Z2.0000
G00 X102.2899 Y72.9752
G01 F120.00
G01 Z-0.6000
G01 F200.00
G01 X194.0800 Y72.9752
G01 X194.3741 Y72.9608
G01 X194.6653 Y72.9176
G01 X194.9509 Y72.8461
G01 X195.2281 Y72.7469
G01 X195.4942 Y72.6210
G01 X195.7467 Y72.4696
G01 X195.9832 Y72.2943
G01 X196.2013 Y72.0966
G01 X196.3990 Y71.8784
G01 X196.5744 Y71.6420
G01 X196.7258 Y71.3894
G01 X196.8516 Y71.1233
G01 X196.9508 Y70.8461
G01 X197.0224 Y70.5605
G01 X197.0656 Y70.2693
G01 X197.0800 Y69.9752
G01 X197.0800 Y39.9875
G00 X197.0800 Y39.9875
G01 F120.00
G01 Z-1.2000
G01 F200.00
G01 X197.0800 Y69.9752
G01 X197.0656 Y70.2693
G01 X197.0224 Y70.5605
G01 X196.9508 Y70.8461
G01 X196.8516 Y71.1233
G01 X196.7258 Y71.3894
G01 X196.5744 Y71.6420
G01 X196.3990 Y71.8784
G01 X196.2013 Y72.0966
G01 X195.9832 Y72.2943
G01 X195.7467 Y72.4696
G01 X195.4942 Y72.6210
G01 X195.2281 Y72.7469
G01 X194.9509 Y72.8461
G01 X194.6653 Y72.9176
G01 X194.3741 Y72.9608
G01 X194.0800 Y72.9752
G01 X102.2899 Y72.9752
G00 X102.2899 Y72.9752
G01 F120.00
G01 Z-1.8000
G01 F200.00
G01 X194.0800 Y72.9752
G01 X194.3741 Y72.9608
G01 X194.6653 Y72.9176
G01 X194.9509 Y72.8461
G01 X195.2281 Y72.7469
G01 X195.4942 Y72.6210
G01 X195.7467 Y72.4696
G01 X195.9832 Y72.2943
G01 X196.2013 Y72.0966
G01 X196.3990 Y71.8784
G01 X196.5744 Y71.6420
G01 X196.7258 Y71.3894
G01 X196.8516 Y71.1233
G01 X196.9508 Y70.8461
G01 X197.0224 Y70.5605
G01 X197.0656 Y70.2693
G01 X197.0800 Y69.9752
G01 X197.0800 Y39.9875
G00 Z2.0000
G00 X197.0800 Y33.9875
G01 F120.00
G01 Z-0.6000
G01 F200.00
G01 X197.0800 Y-0.0003
G01 X197.0656 Y-0.2943
G01 X197.0224 Y-0.5855
G01 X196.9508 Y-0.8711
G01 X196.8516 Y-1.1483
G01 X196.7258 Y-1.4144
G01 X196.5744 Y-1.6670
G01 X196.3990 Y-1.9034
G01 X196.2013 Y-2.1216
G01 X195.9832 Y-2.3193
G01 X195.7467 Y-2.4947
G01 X195.4942 Y-2.6460
G01 X195.2281 Y-2.7719
G01 X194.9509 Y-2.8711
G01 X194.6653 Y-2.9426
G01 X194.3741 Y-2.9858
G01 X194.0800 Y-3.0003
G01 X102.2899 Y-3.0003
G00 X102.2899 Y-3.0003
G01 F120.00
G01 Z-1.2000
G01 F200.00
G01 X194.0800 Y-3.0003
G01 X194.3741 Y-2.9858
G01 X194.6653 Y-2.9426
G01 X194.9509 Y-2.8711
G01 X195.2281 Y-2.7719
G01 X195.4942 Y-2.6460
G01 X195.7467 Y-2.4947
G01 X195.9832 Y-2.3193
G01 X196.2013 Y-2.1216
G01 X196.3990 Y-1.9034
G01 X196.5744 Y-1.6670
G01 X196.7258 Y-1.4144
G01 X196.8516 Y-1.1483
G01 X196.9508 Y-0.8711
G01 X197.0224 Y-0.5855
G01 X197.0656 Y-0.2943
G01 X197.0800 Y-0.0003
G01 X197.0800 Y33.9875
G00 X197.0800 Y33.9875
G01 F120.00
G01 Z-1.8000
G01 F200.00
G01 X197.0800 Y-0.0003
G01 X197.0656 Y-0.2943
G01 X197.0224 Y-0.5855
G01 X196.9508 Y-0.8711
G01 X196.8516 Y-1.1483
G01 X196.7258 Y-1.4144
G01 X196.5744 Y-1.6670
G01 X196.3990 Y-1.9034
G01 X196.2013 Y-2.1216
G01 X195.9832 Y-2.3193
G01 X195.7467 Y-2.4947
G01 X195.4942 Y-2.6460
G01 X195.2281 Y-2.7719
G01 X194.9509 Y-2.8711
G01 X194.6653 Y-2.9426
G01 X194.3741 Y-2.9858
G01 X194.0800 Y-3.0003
G01 X102.2899 Y-3.0003
G00 Z2.0000
M05
G00 Z2.0000
G00 Z15.00


