(G-CODE GENERATED BY FLATCAM v8.994 - www.flatcam.org - Version Date: 2020/11/7)

(Name: sortie_GPIO-PTH.drl_cnc)
(Type: G-code from Geometry)
(Units: MM)

(Created on jeudi, 12 mai 2022 at 16:27)


G01 F300.00

M5
G00 Z15.0000
T1
G00 X0.0000 Y0.0000                
M6
(MSG, Change to Tool Dia = 0.8000 ||| Total drills for tool T1 = 40)
M0
G00 Z15.0000

G01 F300.00
M03
G00 X3.5000 Y12.7750
G01 Z-2.0000
G01 Z0
G00 Z2.0000
G00 X9.0000 Y12.7750
G01 Z-2.0000
G01 Z0
G00 Z2.0000
G00 X14.5000 Y12.7750
G01 Z-2.0000
G01 Z0
G00 Z2.0000
G00 X19.5000 Y12.7750
G01 Z-2.0000
G01 Z0
G00 Z2.0000
G00 X25.5000 Y12.7750
G01 Z-2.0000
G01 Z0
G00 Z2.0000
G00 X30.5000 Y12.7750
G01 Z-2.0000
G01 Z0
G00 Z2.0000
G00 X36.5000 Y12.7750
G01 Z-2.0000
G01 Z0
G00 Z2.0000
G00 X42.0000 Y12.9750
G01 Z-2.0000
G01 Z0
G00 Z2.0000
G00 X61.0000 Y12.9750
G01 Z-2.0000
G01 Z0
G00 Z2.0000
G00 X84.0000 Y12.9750
G01 Z-2.0000
G01 Z0
G00 Z2.0000
G00 X92.0000 Y12.7750
G01 Z-2.0000
G01 Z0
G00 Z2.0000
G00 X103.5000 Y12.7750
G01 Z-2.0000
G01 Z0
G00 Z2.0000
G00 X109.5000 Y12.7750
G01 Z-2.0000
G01 Z0
G00 Z2.0000
G00 X130.5000 Y12.7750
G01 Z-2.0000
G01 Z0
G00 Z2.0000
G00 X136.5000 Y12.7750
G01 Z-2.0000
G01 Z0
G00 Z2.0000
G00 X147.5000 Y12.7750
G01 Z-2.0000
G01 Z0
G00 Z2.0000
G00 X155.5000 Y12.7750
G01 Z-2.0000
G01 Z0
G00 Z2.0000
G00 X173.0000 Y12.7750
G01 Z-2.0000
G01 Z0
G00 Z2.0000
G00 X181.0000 Y12.7750
G01 Z-2.0000
G01 Z0
G00 Z2.0000
G00 X192.5000 Y12.7750
G01 Z-2.0000
G01 Z0
G00 Z2.0000
G00 X192.5000 Y25.4750
G01 Z-2.0000
G01 Z0
G00 Z2.0000
G00 X181.0000 Y25.4750
G01 Z-2.0000
G01 Z0
G00 Z2.0000
G00 X173.0000 Y25.4750
G01 Z-2.0000
G01 Z0
G00 Z2.0000
G00 X155.5000 Y25.4750
G01 Z-2.0000
G01 Z0
G00 Z2.0000
G00 X147.5000 Y25.4750
G01 Z-2.0000
G01 Z0
G00 Z2.0000
G00 X136.5000 Y25.4750
G01 Z-2.0000
G01 Z0
G00 Z2.0000
G00 X130.5000 Y25.4750
G01 Z-2.0000
G01 Z0
G00 Z2.0000
G00 X109.5000 Y25.4750
G01 Z-2.0000
G01 Z0
G00 Z2.0000
G00 X103.5000 Y25.4750
G01 Z-2.0000
G01 Z0
G00 Z2.0000
G00 X92.0000 Y25.4750
G01 Z-2.0000
G01 Z0
G00 Z2.0000
G00 X84.0000 Y25.6750
G01 Z-2.0000
G01 Z0
G00 Z2.0000
G00 X61.0000 Y25.6750
G01 Z-2.0000
G01 Z0
G00 Z2.0000
G00 X42.0000 Y25.6750
G01 Z-2.0000
G01 Z0
G00 Z2.0000
G00 X36.5000 Y25.4750
G01 Z-2.0000
G01 Z0
G00 Z2.0000
G00 X30.5000 Y25.4750
G01 Z-2.0000
G01 Z0
G00 Z2.0000
G00 X25.5000 Y25.4750
G01 Z-2.0000
G01 Z0
G00 Z2.0000
G00 X19.5000 Y25.4750
G01 Z-2.0000
G01 Z0
G00 Z2.0000
G00 X14.5000 Y25.4750
G01 Z-2.0000
G01 Z0
G00 Z2.0000
G00 X9.0000 Y25.4750
G01 Z-2.0000
G01 Z0
G00 Z2.0000
G00 X3.5000 Y25.4750
G01 Z-2.0000
G01 Z0
G00 Z2.0000
G01 F300.00

M5
G00 Z15.0000
T2
G00 X0.0000 Y0.0000                
M6
(MSG, Change to Tool Dia = 1.0000 ||| Total drills for tool T2 = 90)
M0
G00 Z15.0000

G01 F300.00
M03
G00 X4.3200 Y38.9350
G01 Z-2.0000
G01 Z0
G00 Z2.0000
G00 X6.8600 Y38.9350
G01 Z-2.0000
G01 Z0
G00 Z2.0000
G00 X9.4000 Y38.9350
G01 Z-2.0000
G01 Z0
G00 Z2.0000
G00 X11.9400 Y38.9350
G01 Z-2.0000
G01 Z0
G00 Z2.0000
G00 X14.4800 Y38.9350
G01 Z-2.0000
G01 Z0
G00 Z2.0000
G00 X17.0200 Y38.9350
G01 Z-2.0000
G01 Z0
G00 Z2.0000
G00 X19.5600 Y38.9350
G01 Z-2.0000
G01 Z0
G00 Z2.0000
G00 X22.1000 Y38.9350
G01 Z-2.0000
G01 Z0
G00 Z2.0000
G00 X24.6400 Y38.9350
G01 Z-2.0000
G01 Z0
G00 Z2.0000
G00 X27.1800 Y38.9350
G01 Z-2.0000
G01 Z0
G00 Z2.0000
G00 X29.7200 Y38.9350
G01 Z-2.0000
G01 Z0
G00 Z2.0000
G00 X32.2600 Y38.9350
G01 Z-2.0000
G01 Z0
G00 Z2.0000
G00 X34.8000 Y38.9350
G01 Z-2.0000
G01 Z0
G00 Z2.0000
G00 X37.3400 Y38.9350
G01 Z-2.0000
G01 Z0
G00 Z2.0000
G00 X39.8800 Y38.9350
G01 Z-2.0000
G01 Z0
G00 Z2.0000
G00 X42.4200 Y38.9350
G01 Z-2.0000
G01 Z0
G00 Z2.0000
G00 X44.9600 Y38.9350
G01 Z-2.0000
G01 Z0
G00 Z2.0000
G00 X47.5000 Y38.9350
G01 Z-2.0000
G01 Z0
G00 Z2.0000
G00 X50.0400 Y38.9350
G01 Z-2.0000
G01 Z0
G00 Z2.0000
G00 X52.5800 Y38.9350
G01 Z-2.0000
G01 Z0
G00 Z2.0000
G00 X183.5000 Y35.4750
G01 Z-2.0000
G01 Z0
G00 Z2.0000
G00 X180.9600 Y35.4750
G01 Z-2.0000
G01 Z0
G00 Z2.0000
G00 X178.4200 Y35.4750
G01 Z-2.0000
G01 Z0
G00 Z2.0000
G00 X175.8800 Y35.4750
G01 Z-2.0000
G01 Z0
G00 Z2.0000
G00 X173.3400 Y35.4750
G01 Z-2.0000
G01 Z0
G00 Z2.0000
G00 X170.8000 Y35.4750
G01 Z-2.0000
G01 Z0
G00 Z2.0000
G00 X168.2600 Y35.4750
G01 Z-2.0000
G01 Z0
G00 Z2.0000
G00 X165.7200 Y35.4750
G01 Z-2.0000
G01 Z0
G00 Z2.0000
G00 X163.1800 Y35.4750
G01 Z-2.0000
G01 Z0
G00 Z2.0000
G00 X160.6400 Y35.4750
G01 Z-2.0000
G01 Z0
G00 Z2.0000
G00 X135.5000 Y35.4750
G01 Z-2.0000
G01 Z0
G00 Z2.0000
G00 X132.9600 Y35.4750
G01 Z-2.0000
G01 Z0
G00 Z2.0000
G00 X130.4200 Y35.4750
G01 Z-2.0000
G01 Z0
G00 Z2.0000
G00 X127.8800 Y35.4750
G01 Z-2.0000
G01 Z0
G00 Z2.0000
G00 X125.3400 Y35.4750
G01 Z-2.0000
G01 Z0
G00 Z2.0000
G00 X122.8000 Y35.4750
G01 Z-2.0000
G01 Z0
G00 Z2.0000
G00 X120.2600 Y35.4750
G01 Z-2.0000
G01 Z0
G00 Z2.0000
G00 X117.7200 Y35.4750
G01 Z-2.0000
G01 Z0
G00 Z2.0000
G00 X115.1800 Y35.4750
G01 Z-2.0000
G01 Z0
G00 Z2.0000
G00 X112.6400 Y35.4750
G01 Z-2.0000
G01 Z0
G00 Z2.0000
G00 X93.5000 Y35.4750
G01 Z-2.0000
G01 Z0
G00 Z2.0000
G00 X90.9600 Y35.4750
G01 Z-2.0000
G01 Z0
G00 Z2.0000
G00 X88.4200 Y35.4750
G01 Z-2.0000
G01 Z0
G00 Z2.0000
G00 X85.8800 Y35.4750
G01 Z-2.0000
G01 Z0
G00 Z2.0000
G00 X83.3400 Y35.4750
G01 Z-2.0000
G01 Z0
G00 Z2.0000
G00 X80.8000 Y35.4750
G01 Z-2.0000
G01 Z0
G00 Z2.0000
G00 X78.2600 Y35.4750
G01 Z-2.0000
G01 Z0
G00 Z2.0000
G00 X75.7200 Y35.4750
G01 Z-2.0000
G01 Z0
G00 Z2.0000
G00 X73.1800 Y35.4750
G01 Z-2.0000
G01 Z0
G00 Z2.0000
G00 X70.6400 Y35.4750
G01 Z-2.0000
G01 Z0
G00 Z2.0000
G00 X52.5800 Y41.4750
G01 Z-2.0000
G01 Z0
G00 Z2.0000
G00 X50.0400 Y41.4750
G01 Z-2.0000
G01 Z0
G00 Z2.0000
G00 X47.5000 Y41.4750
G01 Z-2.0000
G01 Z0
G00 Z2.0000
G00 X44.9600 Y41.4750
G01 Z-2.0000
G01 Z0
G00 Z2.0000
G00 X42.4200 Y41.4750
G01 Z-2.0000
G01 Z0
G00 Z2.0000
G00 X39.8800 Y41.4750
G01 Z-2.0000
G01 Z0
G00 Z2.0000
G00 X37.3400 Y41.4750
G01 Z-2.0000
G01 Z0
G00 Z2.0000
G00 X34.8000 Y41.4750
G01 Z-2.0000
G01 Z0
G00 Z2.0000
G00 X32.2600 Y41.4750
G01 Z-2.0000
G01 Z0
G00 Z2.0000
G00 X29.7200 Y41.4750
G01 Z-2.0000
G01 Z0
G00 Z2.0000
G00 X27.1800 Y41.4750
G01 Z-2.0000
G01 Z0
G00 Z2.0000
G00 X24.6400 Y41.4750
G01 Z-2.0000
G01 Z0
G00 Z2.0000
G00 X22.1000 Y41.4750
G01 Z-2.0000
G01 Z0
G00 Z2.0000
G00 X19.5600 Y41.4750
G01 Z-2.0000
G01 Z0
G00 Z2.0000
G00 X17.0200 Y41.4750
G01 Z-2.0000
G01 Z0
G00 Z2.0000
G00 X14.4800 Y41.4750
G01 Z-2.0000
G01 Z0
G00 Z2.0000
G00 X13.1800 Y47.9750
G01 Z-2.0000
G01 Z0
G00 Z2.0000
G00 X15.7200 Y47.9750
G01 Z-2.0000
G01 Z0
G00 Z2.0000
G00 X18.2600 Y47.9750
G01 Z-2.0000
G01 Z0
G00 Z2.0000
G00 X20.8000 Y47.9750
G01 Z-2.0000
G01 Z0
G00 Z2.0000
G00 X23.3400 Y47.9750
G01 Z-2.0000
G01 Z0
G00 Z2.0000
G00 X25.8800 Y47.9750
G01 Z-2.0000
G01 Z0
G00 Z2.0000
G00 X28.4200 Y47.9750
G01 Z-2.0000
G01 Z0
G00 Z2.0000
G00 X30.9600 Y47.9750
G01 Z-2.0000
G01 Z0
G00 Z2.0000
G00 X33.5000 Y47.9750
G01 Z-2.0000
G01 Z0
G00 Z2.0000
G00 X33.5000 Y50.5150
G01 Z-2.0000
G01 Z0
G00 Z2.0000
G00 X30.9600 Y50.5150
G01 Z-2.0000
G01 Z0
G00 Z2.0000
G00 X28.4200 Y50.5150
G01 Z-2.0000
G01 Z0
G00 Z2.0000
G00 X25.8800 Y50.5150
G01 Z-2.0000
G01 Z0
G00 Z2.0000
G00 X23.3400 Y50.5150
G01 Z-2.0000
G01 Z0
G00 Z2.0000
G00 X20.8000 Y50.5150
G01 Z-2.0000
G01 Z0
G00 Z2.0000
G00 X18.2600 Y50.5150
G01 Z-2.0000
G01 Z0
G00 Z2.0000
G00 X15.7200 Y50.5150
G01 Z-2.0000
G01 Z0
G00 Z2.0000
G00 X13.1800 Y50.5150
G01 Z-2.0000
G01 Z0
G00 Z2.0000
G00 X10.6400 Y50.5150
G01 Z-2.0000
G01 Z0
G00 Z2.0000
G00 X10.6400 Y47.9750
G01 Z-2.0000
G01 Z0
G00 Z2.0000
G00 X11.9400 Y41.4750
G01 Z-2.0000
G01 Z0
G00 Z2.0000
G00 X9.4000 Y41.4750
G01 Z-2.0000
G01 Z0
G00 Z2.0000
G00 X6.8600 Y41.4750
G01 Z-2.0000
G01 Z0
G00 Z2.0000
G00 X4.3200 Y41.4750
G01 Z-2.0000
G01 Z0
G00 Z2.0000
G01 F300.00

M5
G00 Z15.0000
T3
G00 X0.0000 Y0.0000                
M6
(MSG, Change to Tool Dia = 1.2000 ||| Total drills for tool T3 = 1)
M0
G00 Z15.0000

G01 F300.00
M03
G00 X53.0000 Y47.4750
G01 Z-2.0000
G01 Z0
G00 Z2.0000
G01 F300.00

M5
G00 Z15.0000
T4
G00 X0.0000 Y0.0000                
M6
(MSG, Change to Tool Dia = 1.3000 ||| Total drills for tool T4 = 9)
M0
G00 Z15.0000

G01 F300.00
M03
G00 X5.0000 Y52.9750
G01 Z-2.0000
G01 Z0
G00 Z2.0000
G00 X5.2000 Y49.4750
G01 Z-2.0000
G01 Z0
G00 Z2.0000
G00 X52.5000 Y18.9750
G01 Z-2.0000
G01 Z0
G00 Z2.0000
G00 X55.0000 Y21.9750
G01 Z-2.0000
G01 Z0
G00 Z2.0000
G00 X179.0000 Y30.9750
G01 Z-2.0000
G01 Z0
G00 Z2.0000
G00 X149.0000 Y35.9750
G01 Z-2.0000
G01 Z0
G00 Z2.0000
G00 X143.0000 Y35.9750
G01 Z-2.0000
G01 Z0
G00 Z2.0000
G00 X98.0000 Y45.4750
G01 Z-2.0000
G01 Z0
G00 Z2.0000
G00 X93.0000 Y45.4750
G01 Z-2.0000
G01 Z0
G00 Z2.0000
G01 F300.00

M5
G00 Z15.0000
T5
G00 X0.0000 Y0.0000                
M6
(MSG, Change to Tool Dia = 1.5200 ||| Total drills for tool T5 = 36)
M0
G00 Z15.0000

G01 F300.00
M03
G00 X3.5000 Y5.4750
G01 Z-2.0000
G01 Z0
G00 Z2.0000
G00 X8.5800 Y5.4750
G01 Z-2.0000
G01 Z0
G00 Z2.0000
G00 X14.5000 Y5.4750
G01 Z-2.0000
G01 Z0
G00 Z2.0000
G00 X19.5800 Y5.4750
G01 Z-2.0000
G01 Z0
G00 Z2.0000
G00 X25.5000 Y5.4750
G01 Z-2.0000
G01 Z0
G00 Z2.0000
G00 X30.5800 Y5.4750
G01 Z-2.0000
G01 Z0
G00 Z2.0000
G00 X36.5000 Y5.4750
G01 Z-2.0000
G01 Z0
G00 Z2.0000
G00 X41.5800 Y5.4750
G01 Z-2.0000
G01 Z0
G00 Z2.0000
G00 X50.7200 Y5.4750
G01 Z-2.0000
G01 Z0
G00 Z2.0000
G00 X55.8000 Y5.4750
G01 Z-2.0000
G01 Z0
G00 Z2.0000
G00 X64.0000 Y5.4750
G01 Z-2.0000
G01 Z0
G00 Z2.0000
G00 X69.0800 Y5.4750
G01 Z-2.0000
G01 Z0
G00 Z2.0000
G00 X75.5000 Y5.4750
G01 Z-2.0000
G01 Z0
G00 Z2.0000
G00 X80.5800 Y5.4750
G01 Z-2.0000
G01 Z0
G00 Z2.0000
G00 X86.9200 Y5.4750
G01 Z-2.0000
G01 Z0
G00 Z2.0000
G00 X92.0000 Y5.4750
G01 Z-2.0000
G01 Z0
G00 Z2.0000
G00 X98.0000 Y5.4750
G01 Z-2.0000
G01 Z0
G00 Z2.0000
G00 X103.0800 Y5.4750
G01 Z-2.0000
G01 Z0
G00 Z2.0000
G00 X109.4200 Y5.4750
G01 Z-2.0000
G01 Z0
G00 Z2.0000
G00 X114.5000 Y5.4750
G01 Z-2.0000
G01 Z0
G00 Z2.0000
G00 X120.5000 Y5.4750
G01 Z-2.0000
G01 Z0
G00 Z2.0000
G00 X125.5800 Y5.4750
G01 Z-2.0000
G01 Z0
G00 Z2.0000
G00 X131.5000 Y5.4750
G01 Z-2.0000
G01 Z0
G00 Z2.0000
G00 X136.5800 Y5.4750
G01 Z-2.0000
G01 Z0
G00 Z2.0000
G00 X142.4200 Y5.4750
G01 Z-2.0000
G01 Z0
G00 Z2.0000
G00 X147.5000 Y5.4750
G01 Z-2.0000
G01 Z0
G00 Z2.0000
G00 X153.5000 Y5.4750
G01 Z-2.0000
G01 Z0
G00 Z2.0000
G00 X158.5800 Y5.4750
G01 Z-2.0000
G01 Z0
G00 Z2.0000
G00 X164.5000 Y5.4750
G01 Z-2.0000
G01 Z0
G00 Z2.0000
G00 X169.5800 Y5.4750
G01 Z-2.0000
G01 Z0
G00 Z2.0000
G00 X176.0000 Y5.4750
G01 Z-2.0000
G01 Z0
G00 Z2.0000
G00 X181.0800 Y5.4750
G01 Z-2.0000
G01 Z0
G00 Z2.0000
G00 X187.5000 Y5.4750
G01 Z-2.0000
G01 Z0
G00 Z2.0000
G00 X192.5800 Y5.4750
G01 Z-2.0000
G01 Z0
G00 Z2.0000
G00 X90.0000 Y57.4750
G01 Z-2.0000
G01 Z0
G00 Z2.0000
G00 X84.9200 Y57.4750
G01 Z-2.0000
G01 Z0
G00 Z2.0000
M05
G00 Z0.50


